X:221
T: AM BLAU UND WEISSEN BANDE
N: B0264
O: Europa, Mitteleuropa, Oesterreich, Passau
R: Stimmungs - Lied, Sehnsucht, Treue
M: 6/4
L: 1/8
K: G
D2 | G4G2F2E2F2 | G6D4
D2 | E4E2G2F2E2 | D6z4
Bc | d4B2e4d2 | c4BcA4
c2 | B4B2d2c2A2 | G6z4

